; generated by Slic3r 0.9.8 on 2013-07-06 at 21:09:48

; layer_height = 0.35
; perimeters = 2
; top_solid_layers = 2
; bottom_solid_layers = 2
; fill_density = 0.3
; perimeter_speed = 35
; infill_speed = 70
; travel_speed = 130
; scale = 1
; nozzle_diameter = 0.4
; filament_diameter = 3
; extrusion_multiplier = 1.
; perimeters extrusion width = 0.42mm
; infill extrusion width = 0.42mm
; first layer extrusion width = 0.35mm

M107
M104 S250 ; set temperature
M83 ; use relative distances for extrusion
G28 ; home all axes
G1X5Y98F9000 ; Go to the middle of the front
G1Z0.05 ; close to the bed
M104 S200 ; set extruder temp S200
M190 S55 ; set bed temp & wait S55
M109 S240 ; wait for extruder temp
G92 E0 ; reset extruder pos
G1E5F50 ; extrude a blob
G1E-1.5F1200
G1X40F4000 ;wipe 40mm along the edge of the bed
G1Z0.3 ;lift Z 
G90 ; use absolute coordinates
G21 ; set units to millimeters
G92 E0
M82 ; use absolute distances for extrusion
G1 F1800.000 E-1.00000
G92 E0
G1 Z0.175 F7800.000
G1 X-10.450 Y-12.280
G1 F1800.000 E1.00000
G1 X-9.960 Y-12.510 F840.000 E1.00483
G1 X-9.460 Y-12.710 E1.00964
G1 X-9.200 Y-12.790 E1.01207
G1 X-8.670 Y-12.920 E1.01695
G1 X-8.140 Y-13.000 E1.02173
G1 X-7.600 Y-13.050 E1.02658
G1 X7.590 Y-13.050 E1.16223
G1 X7.860 Y-13.030 E1.16465
G1 X8.660 Y-12.920 E1.17186
G1 X9.450 Y-12.710 E1.17916
G1 X10.200 Y-12.400 E1.18641
G1 X10.680 Y-12.150 E1.19125
G1 X11.140 Y-11.860 E1.19610
G1 X11.570 Y-11.540 E1.20089
G1 X11.780 Y-11.360 E1.20336
G1 X12.170 Y-10.990 E1.20816
G1 X12.690 Y-10.370 E1.21539
G1 X13.000 Y-9.920 E1.22027
G1 X13.270 Y-9.450 E1.22511
G1 X13.500 Y-8.960 E1.22994
G1 X13.700 Y-8.460 E1.23475
G1 X13.910 Y-7.670 E1.24205
G1 X13.990 Y-7.140 E1.24684
G1 X14.040 Y-6.600 E1.25168
G1 X14.040 Y10.590 E1.40520
G1 X14.020 Y10.860 E1.40762
G1 X13.910 Y11.660 E1.41483
G1 X13.700 Y12.450 E1.42213
G1 X13.390 Y13.200 E1.42938
G1 X13.000 Y13.910 E1.43661
G1 X12.530 Y14.570 E1.44385
G1 X11.980 Y15.170 E1.45112
G1 X11.360 Y15.690 E1.45835
G1 X10.680 Y16.140 E1.46563
G1 X10.200 Y16.390 E1.47046
G1 X9.450 Y16.700 E1.47771
G1 X8.660 Y16.910 E1.48501
G1 X7.860 Y17.020 E1.49222
G1 X7.590 Y17.040 E1.49464
G1 X2.390 Y17.040 E1.54108
G1 X1.560 Y16.950 E1.54853
G1 X1.280 Y16.900 E1.55108
G1 X0.740 Y16.760 E1.55606
G1 X-0.050 Y16.470 E1.56357
G1 X-0.790 Y16.080 E1.57104
G1 X-1.260 Y15.770 E1.57607
G1 X-1.700 Y15.430 E1.58104
G1 X-2.110 Y15.040 E1.58609
G1 X-2.490 Y14.630 E1.59108
G1 X-12.660 Y2.440 E1.73286
G1 X-12.980 Y1.990 E1.73779
G1 X-13.120 Y1.760 E1.74020
G1 X-13.260 Y1.520 E1.74268
G1 X-13.500 Y1.030 E1.74755
G1 X-13.780 Y0.250 E1.75495
G1 X-13.910 Y-0.280 E1.75983
G1 X-14.000 Y-0.830 E1.76480
G1 X-14.050 Y-1.370 E1.76965
G1 X-14.050 Y-6.600 E1.81636
G1 X-14.000 Y-7.140 E1.82120
G1 X-13.920 Y-7.670 E1.82599
G1 X-13.710 Y-8.460 E1.83329
G1 X-13.510 Y-8.960 E1.83810
G1 X-13.280 Y-9.450 E1.84293
G1 X-12.860 Y-10.150 E1.85022
G1 X-12.540 Y-10.580 E1.85501
G1 X-12.360 Y-10.790 E1.85748
G1 X-12.180 Y-10.990 E1.85988
G1 X-11.790 Y-11.360 E1.86468
G1 X-11.580 Y-11.540 E1.86715
G1 X-11.150 Y-11.860 E1.87194
G1 X-10.498 Y-12.254 E1.87875
G1 X-10.450 Y-12.280 E1.87923
G1 X-10.360 Y-11.920 F7800.000
G1 X-9.640 Y-12.260 F840.000 E1.88634
G1 X-9.400 Y-12.350 E1.88863
G1 X-8.890 Y-12.500 E1.89338
G1 X-8.640 Y-12.560 E1.89567
G1 X-8.120 Y-12.640 E1.90037
G1 X-7.590 Y-12.690 E1.90513
G1 X7.580 Y-12.690 E2.04061
G1 X7.850 Y-12.670 E2.04302
G1 X8.630 Y-12.560 E2.05006
G1 X9.390 Y-12.350 E2.05710
G1 X9.880 Y-12.150 E2.06183
G1 X10.580 Y-11.790 E2.06886
G1 X11.020 Y-11.510 E2.07351
G1 X11.630 Y-11.010 E2.08056
G1 X12.000 Y-10.640 E2.08523
G1 X12.500 Y-10.030 E2.09227
G1 X12.910 Y-9.360 E2.09929
G1 X13.140 Y-8.890 E2.10396
G1 X13.340 Y-8.400 E2.10869
G1 X13.550 Y-7.640 E2.11573
G1 X13.630 Y-7.120 E2.12043
G1 X13.680 Y-6.590 E2.12518
G1 X13.680 Y10.580 E2.27853
G1 X13.660 Y10.850 E2.28094
G1 X13.550 Y11.630 E2.28798
G1 X13.340 Y12.390 E2.29502
G1 X13.140 Y12.880 E2.29975
G1 X12.780 Y13.580 E2.30678
G1 X12.500 Y14.020 E2.31143
G1 X12.340 Y14.230 E2.31379
G1 X11.820 Y14.820 E2.32082
G1 X11.230 Y15.340 E2.32784
G1 X11.020 Y15.500 E2.33020
G1 X10.580 Y15.780 E2.33485
G1 X9.880 Y16.140 E2.34188
G1 X9.390 Y16.340 E2.34661
G1 X8.630 Y16.550 E2.35365
G1 X7.850 Y16.660 E2.36069
G1 X7.580 Y16.680 E2.36311
G1 X2.410 Y16.680 E2.40928
G1 X1.610 Y16.590 E2.41647
G1 X0.840 Y16.410 E2.42353
G1 X0.100 Y16.140 E2.43056
G1 X-0.610 Y15.770 E2.43771
G1 X-1.050 Y15.480 E2.44242
G1 X-1.470 Y15.150 E2.44719
G1 X-2.040 Y14.600 E2.45426
G1 X-12.210 Y2.430 E2.59591
G1 X-12.550 Y1.990 E2.60087
G1 X-12.980 Y1.280 E2.60828
G1 X-13.310 Y0.520 E2.61568
G1 X-13.480 Y-0.010 E2.62066
G1 X-13.640 Y-0.820 E2.62803
G1 X-13.670 Y-1.100 E2.63054
G1 X-13.690 Y-1.650 E2.63546
G1 X-13.690 Y-6.590 E2.67958
G1 X-13.640 Y-7.120 E2.68433
G1 X-13.560 Y-7.640 E2.68903
G1 X-13.430 Y-8.140 E2.69364
G1 X-13.260 Y-8.640 E2.69836
G1 X-12.920 Y-9.360 E2.70547
G1 X-12.510 Y-10.030 E2.71249
G1 X-12.010 Y-10.640 E2.71953
G1 X-11.640 Y-11.010 E2.72420
G1 X-11.030 Y-11.510 E2.73125
G1 X-10.407 Y-11.893 E2.73778
G1 X-10.360 Y-11.920 E2.73826
G1 F1800.000 E1.73826
G92 E0
G1 X-6.964 Y-5.964 F7800.000
G1 F1800.000 E1.00000
G1 X6.964 Y-5.964 F840.000 E1.12439
G1 X6.964 Y9.964 E1.26665
G1 X3.036 Y9.964 E1.30173
G1 X3.036 Y0.061 E1.39018
G1 X-6.964 Y-1.939 E1.48125
G1 X-6.964 Y-5.910 E1.51672
G1 X-6.964 Y-5.964 E1.51720
G1 X-7.325 Y-6.325 F7800.000
G1 X7.325 Y-6.325 F840.000 E1.64803
G1 X7.325 Y10.325 E1.79673
G1 X2.675 Y10.325 E1.83826
G1 X2.675 Y0.357 E1.92729
G1 X-7.325 Y-1.643 E2.01836
G1 X-7.325 Y-6.271 E2.05969
G1 X-7.325 Y-6.325 E2.06017
G1 X-7.013 Y-6.145 F7800.000
G1 F1800.000 E1.06017
G92 E0
G1 X-6.229 Y-2.068 F7800.000
G1 F1800.000 E1.00000
G1 X-6.718 Y-2.557 F1440.000 E1.00620
G1 X-6.718 Y-3.069 E1.01078
G1 X-5.590 Y-1.940 E1.02507
G1 X-4.950 Y-1.812 E1.03091
G1 X-6.718 Y-3.580 E1.05330
G1 X-6.718 Y-4.092 E1.05788
G1 X-4.311 Y-1.685 E1.08836
G1 X-3.672 Y-1.557 E1.09420
G1 X-6.718 Y-4.603 E1.13278
G1 X-6.718 Y-5.115 E1.13736
G1 X-3.032 Y-1.429 E1.18404
G1 X-2.393 Y-1.301 E1.18988
G1 X-6.718 Y-5.626 E1.24466
G1 X-6.299 Y-5.718 E1.24851
G1 X-1.754 Y-1.173 E1.30607
G1 X-1.114 Y-1.045 E1.31191
G1 X-5.787 Y-5.718 E1.37109
G1 X-5.276 Y-5.718 E1.37567
G1 X-0.475 Y-0.917 E1.43647
G1 X0.165 Y-0.789 E1.44231
G1 X-4.764 Y-5.718 E1.50473
G1 X-4.253 Y-5.718 E1.50931
G1 X0.804 Y-0.662 E1.57334
G1 X1.443 Y-0.534 E1.57918
G1 X-3.741 Y-5.718 E1.64484
G1 X-3.230 Y-5.718 E1.64942
G1 X2.083 Y-0.406 E1.71670
G1 F1800.000 E0.71670
G92 E0
G1 X6.489 Y-5.718 F7800.000
G1 F1800.000 E1.00000
G1 X6.718 Y-5.489 F1440.000 E1.00291
G1 X6.718 Y-4.977 E1.00749
G1 X5.977 Y-5.718 E1.01688
G1 X5.466 Y-5.718 E1.02146
G1 X6.718 Y-4.466 E1.03732
G1 X6.718 Y-3.954 E1.04190
G1 X4.954 Y-5.718 E1.06424
G1 X4.443 Y-5.718 E1.06882
G1 X6.718 Y-3.443 E1.09764
G1 X6.718 Y-2.931 E1.10222
G1 X3.931 Y-5.718 E1.13752
G1 X3.420 Y-5.718 E1.14210
G1 X6.718 Y-2.420 E1.18388
G1 X6.718 Y-1.908 E1.18846
G1 X2.908 Y-5.718 E1.23671
G1 X2.397 Y-5.718 E1.24129
G1 X6.718 Y-1.397 E1.29602
G1 X6.718 Y-0.885 E1.30060
G1 X1.885 Y-5.718 E1.36181
G1 X1.374 Y-5.718 E1.36639
G1 X6.718 Y-0.374 E1.43407
G1 X6.718 Y0.138 E1.43865
G1 X0.862 Y-5.718 E1.51281
G1 X0.351 Y-5.718 E1.51739
G1 X6.718 Y0.649 E1.59803
G1 X6.718 Y1.161 E1.60261
G1 X-0.161 Y-5.718 E1.68973
G1 X-0.672 Y-5.718 E1.69431
G1 X6.718 Y1.672 E1.78790
G1 X6.718 Y2.184 E1.79248
G1 X-1.184 Y-5.718 E1.89256
G1 X-1.695 Y-5.718 E1.89714
G1 X6.718 Y2.695 E2.00369
G1 X6.718 Y3.207 E2.00827
G1 X3.282 Y-0.230 E2.05179
G1 X2.722 Y-0.278 E2.05682
G1 X-2.718 Y-5.718 E2.12571
G1 X-2.207 Y-5.718 E2.13029
G1 X3.362 Y-0.150 E2.20081
G1 X3.282 Y0.282 E2.20474
G1 X6.718 Y3.718 E2.24826
G1 X6.718 Y4.230 E2.25284
G1 X3.282 Y0.793 E2.29637
G1 X3.282 Y1.305 E2.30095
G1 X6.718 Y4.741 E2.34447
G1 X6.718 Y5.253 E2.34905
G1 X3.282 Y1.816 E2.39257
G1 X3.282 Y2.328 E2.39715
G1 X6.718 Y5.764 E2.44068
G1 X6.718 Y6.276 E2.44526
G1 X3.282 Y2.839 E2.48878
G1 X3.282 Y3.351 E2.49336
G1 X6.718 Y6.787 E2.53688
G1 X6.718 Y7.299 E2.54146
G1 X3.282 Y3.862 E2.58499
G1 X3.282 Y4.374 E2.58957
G1 X6.718 Y7.810 E2.63309
G1 X6.718 Y8.322 E2.63767
G1 X3.282 Y4.885 E2.68119
G1 X3.282 Y5.397 E2.68577
G1 X6.718 Y8.833 E2.72930
G1 X6.718 Y9.345 E2.73388
G1 X3.282 Y5.908 E2.77740
G1 X3.282 Y6.420 E2.78198
G1 X6.580 Y9.718 E2.82376
G1 X6.069 Y9.718 E2.82833
G1 X3.282 Y6.931 E2.86363
G1 X3.282 Y7.443 E2.86821
G1 X5.557 Y9.718 E2.89703
G1 X5.046 Y9.718 E2.90161
G1 X3.282 Y7.954 E2.92395
G1 X3.282 Y8.466 E2.92854
G1 X4.534 Y9.718 E2.94440
G1 X4.023 Y9.718 E2.94898
G1 X3.282 Y8.977 E2.95837
G1 X3.282 Y9.489 E2.96295
G1 X3.511 Y9.718 E2.96586
M106 S76
M104 S240 ; set temperature
M140 S50 ; set bed temperature
G1 F1800.000 E1.96586
G92 E0
G1 Z0.525 F7800.000
G1 X-6.874 Y-2.013
G1 F1800.000 E1.00000
G1 X-6.874 Y-5.874 F1046.349 E1.07948
G1 X6.874 Y-5.874 E1.36248
G1 X6.874 Y9.874 E1.68664
G1 X3.126 Y9.874 E1.76380
G1 X3.126 Y-0.013 E1.96732
G1 X-6.813 Y-2.001 E2.17595
G1 X-6.874 Y-2.013 E2.17723
G1 X-7.290 Y-1.672 F7800.000
G1 X-7.290 Y-6.290 F1046.349 E2.27228
G1 X7.290 Y-6.290 E2.57240
G1 X7.290 Y10.290 E2.91367
G1 X2.710 Y10.290 E3.00795
G1 X2.710 Y0.328 E3.21301
G1 X-7.229 Y-1.660 E3.42164
G1 X-7.290 Y-1.672 E3.42292
G1 X-7.059 Y-2.018 F7800.000
G1 F1800.000 E2.42292
G92 E0
G1 X-6.326 Y-5.591 F7800.000
G1 F1800.000 E1.00000
G1 X-6.591 Y-5.326 F1793.741 E1.00776
G1 X-6.591 Y-4.734 E1.02004
G1 X-5.734 Y-5.591 E1.04517
G1 X-5.142 Y-5.591 E1.05745
G1 X-6.591 Y-4.142 E1.09994
G1 X-6.591 Y-3.550 E1.11222
G1 X-4.550 Y-5.591 E1.17209
G1 X-3.957 Y-5.591 E1.18437
G1 X-6.591 Y-2.957 E1.26159
G1 X-6.591 Y-2.365 E1.27387
G1 X-3.365 Y-5.591 E1.36846
G1 X-2.773 Y-5.591 E1.38075
G1 X-6.217 Y-2.147 E1.48175
G1 X-5.724 Y-2.048 E1.49218
G1 X-2.181 Y-5.591 E1.59608
G1 X-1.589 Y-5.591 E1.60836
G1 X-5.230 Y-1.949 E1.71515
G1 X-4.737 Y-1.851 E1.72558
G1 X-0.996 Y-5.591 E1.83527
G1 X-0.404 Y-5.591 E1.84755
G1 X-4.243 Y-1.752 E1.96013
G1 X-3.750 Y-1.653 E1.97056
G1 X0.188 Y-5.591 E2.08603
G1 X0.780 Y-5.591 E2.09832
G1 X-3.256 Y-1.554 E2.21668
G1 X-2.763 Y-1.456 E2.22712
G1 X1.373 Y-5.591 E2.34838
G1 X1.965 Y-5.591 E2.36066
G1 X-2.269 Y-1.357 E2.48482
G1 X-1.776 Y-1.258 E2.49525
G1 X2.557 Y-5.591 E2.62230
G1 X3.149 Y-5.591 E2.63458
G1 X-1.282 Y-1.160 E2.76452
G1 X-0.789 Y-1.061 E2.77496
G1 X3.741 Y-5.591 E2.90780
G1 X4.334 Y-5.591 E2.92008
G1 X-0.295 Y-0.962 E3.05582
G1 X0.198 Y-0.864 E3.06625
G1 X4.926 Y-5.591 E3.20488
G1 X5.518 Y-5.591 E3.21716
G1 X0.692 Y-0.765 E3.35868
G1 X1.185 Y-0.666 E3.36912
G1 X6.110 Y-5.591 E3.51353
G1 X6.591 Y-5.479 E3.52376
G1 X1.679 Y-0.567 E3.66780
G1 X2.173 Y-0.469 E3.67824
G1 X6.591 Y-4.887 E3.80781
G1 X6.591 Y-4.295 E3.82009
G1 X2.666 Y-0.370 E3.93518
G1 X3.160 Y-0.271 E3.94561
G1 X6.591 Y-3.703 E4.04624
G1 X6.591 Y-3.110 E4.05852
G1 X3.409 Y0.071 E4.15182
G1 X3.409 Y0.664 E4.16410
G1 X6.591 Y-2.518 E4.25741
G1 X6.591 Y-1.926 E4.26969
G1 X3.409 Y1.256 E4.36300
G1 X3.409 Y1.848 E4.37528
G1 X6.591 Y-1.334 E4.46858
G1 X6.591 Y-0.742 E4.48086
G1 X3.409 Y2.440 E4.57417
G1 X3.409 Y3.033 E4.58645
G1 X6.591 Y-0.149 E4.67976
G1 X6.591 Y0.443 E4.69204
G1 X3.409 Y3.625 E4.78535
G1 X3.409 Y4.217 E4.79763
G1 X6.591 Y1.035 E4.89093
G1 X6.591 Y1.627 E4.90321
G1 X3.409 Y4.809 E4.99652
G1 X3.409 Y5.402 E5.00880
G1 X6.591 Y2.220 E5.10211
G1 X6.591 Y2.812 E5.11439
G1 X3.409 Y5.994 E5.20769
G1 X3.409 Y6.586 E5.21997
G1 X6.591 Y3.404 E5.31328
G1 X6.591 Y3.996 E5.32556
G1 X3.409 Y7.178 E5.41887
G1 X3.409 Y7.770 E5.43115
G1 X6.591 Y4.588 E5.52446
G1 X6.591 Y5.181 E5.53674
G1 X3.409 Y8.363 E5.63005
G1 X3.409 Y8.955 E5.64233
G1 X6.591 Y5.773 E5.73563
G1 X6.591 Y6.365 E5.74791
G1 X3.409 Y9.547 E5.84122
G1 X3.957 Y9.591 E5.85263
G1 X6.591 Y6.957 E5.92986
G1 X6.591 Y7.550 E5.94214
G1 X4.550 Y9.591 E6.00200
G1 X5.142 Y9.591 E6.01428
G1 X6.591 Y8.142 E6.05677
G1 X6.591 Y8.734 E6.06905
G1 X5.734 Y9.591 E6.09418
G1 X6.326 Y9.591 E6.10646
G1 X6.591 Y9.326 E6.11423
G1 F1800.000 E5.11423
G92 E0
G1 Z0.875 F7800.000
G1 X6.874 Y9.874
G1 F1800.000 E1.00000
G1 X3.126 Y9.874 F652.998 E1.07716
G1 X3.126 Y-0.013 E1.28068
G1 X-6.874 Y-2.013 E1.49059
G1 X-6.874 Y-5.874 E1.57007
G1 X6.874 Y-5.874 E1.85307
G1 X6.874 Y9.812 E2.17595
G1 X6.874 Y9.874 E2.17723
G1 X7.290 Y10.290 F7800.000
G1 X2.710 Y10.290 F652.998 E2.27151
G1 X2.710 Y0.328 E2.47656
G1 X-7.290 Y-1.672 E2.68648
G1 X-7.290 Y-6.290 E2.78153
G1 X7.290 Y-6.290 E3.08164
G1 X7.290 Y10.228 E3.42164
G1 X7.290 Y10.290 E3.42292
G1 X6.930 Y10.082 F7800.000
G1 F1800.000 E2.42292
G92 E0
G1 X3.674 Y9.591 F7800.000
G1 F1800.000 E1.00000
G1 X3.409 Y9.326 F1305.996 E1.00771
G1 X3.409 Y7.367 E1.04804
G1 X5.633 Y9.591 E1.11280
G1 X6.591 Y8.589 E1.14133
G1 X3.409 Y5.407 E1.23396
G1 X3.409 Y3.447 E1.27429
G1 X6.591 Y6.629 E1.36692
G1 X6.591 Y4.670 E1.40726
G1 X3.409 Y1.488 E1.49988
G1 X3.656 Y-0.225 E1.53550
G1 X-1.710 Y-5.591 E1.69170
G1 X-3.670 Y-5.591 E1.73204
G1 X1.207 Y-0.715 E1.87399
G1 X3.409 Y-0.472 E1.91959
G1 X6.591 Y2.710 E2.01222
G1 X6.591 Y0.750 E2.05256
G1 X0.250 Y-5.591 E2.23715
G1 X2.210 Y-5.591 E2.27748
G1 X6.591 Y-1.210 E2.40503
G1 X6.591 Y-3.169 E2.44536
G1 X4.169 Y-5.591 E2.51586
G1 X6.129 Y-5.591 E2.55620
G1 X6.591 Y-5.129 E2.56965
G1 F1800.000 E1.56965
G92 E0
G1 X-1.243 Y-1.205 F7800.000
G1 F1800.000 E1.00000
G1 X-5.629 Y-5.591 F1305.996 E1.12768
G1 X-6.591 Y-4.593 E1.15621
G1 X-3.692 Y-1.695 E1.24059
G1 X-6.142 Y-2.184 E1.29201
G1 X-6.591 Y-2.633 E1.30508
G1 F1800.000 E0.30508
G92 E0
G1 Z1.225 F7800.000
G1 X3.126 Y9.874
G1 F1800.000 E1.00000
G1 X3.126 Y-0.013 F650.808 E1.20352
G1 X-6.874 Y-2.013 E1.41343
G1 X-6.874 Y-5.874 E1.49291
G1 X6.874 Y-5.874 E1.77591
G1 X6.874 Y9.874 E2.10007
G1 X3.188 Y9.874 E2.17595
G1 X3.126 Y9.874 E2.17723
G1 X2.710 Y10.290 F7800.000
G1 X2.710 Y0.328 F650.808 E2.38229
G1 X-7.290 Y-1.672 E2.59220
G1 X-7.290 Y-6.290 E2.68726
G1 X7.290 Y-6.290 E2.98737
G1 X7.290 Y10.290 E3.32865
G1 X2.772 Y10.290 E3.42164
G1 X2.710 Y10.290 E3.42292
G1 X2.918 Y9.930 F7800.000
G1 F1800.000 E2.42292
G92 E0
G1 X6.591 Y9.326 F7800.000
G1 F1800.000 E1.00000
G1 X6.326 Y9.591 F1301.616 E1.00771
G1 X4.367 Y9.591 E1.04804
G1 X6.591 Y7.367 E1.11279
G1 X6.591 Y5.407 E1.15313
G1 X3.409 Y8.589 E1.24576
G1 X3.409 Y6.629 E1.28609
G1 X6.591 Y3.447 E1.37872
G1 X6.591 Y1.488 E1.41906
G1 X3.409 Y4.670 E1.51168
G1 X3.409 Y2.710 E1.55202
G1 X6.591 Y-0.472 E1.64465
G1 X6.591 Y-2.432 E1.68498
G1 X3.409 Y0.750 E1.77761
G1 X2.586 Y-0.386 F7800.000
G1 X6.591 Y-4.391 F1301.616 E1.89420
G1 X5.831 Y-5.591 E1.92343
G1 X0.953 Y-0.713 E2.06544
G1 X-0.680 Y-1.039 E2.09972
G1 X3.871 Y-5.591 E2.23222
G1 X1.911 Y-5.591 E2.27256
G1 X-2.314 Y-1.366 E2.39555
G1 X-3.947 Y-1.693 E2.42983
G1 X-0.048 Y-5.591 E2.54331
G1 X-2.008 Y-5.591 E2.58365
G1 X-5.580 Y-2.019 E2.68762
G1 X-6.591 Y-2.968 E2.71616
G1 X-3.968 Y-5.591 E2.79253
G1 X-5.927 Y-5.591 E2.83287
G1 X-6.591 Y-4.927 E2.85219
G1 F1800.000 E1.85219
G92 E0
G1 Z1.575 F7800.000
G1 X6.874 Y9.874
G1 F1800.000 E1.00000
G1 X3.126 Y9.874 F652.998 E1.07716
G1 X3.126 Y-0.013 E1.28068
G1 X-6.874 Y-2.013 E1.49059
G1 X-6.874 Y-5.874 E1.57007
G1 X6.874 Y-5.874 E1.85307
G1 X6.874 Y9.812 E2.17595
G1 X6.874 Y9.874 E2.17723
G1 X7.290 Y10.290 F7800.000
G1 X2.710 Y10.290 F652.998 E2.27151
G1 X2.710 Y0.328 E2.47656
G1 X-7.290 Y-1.672 E2.68648
G1 X-7.290 Y-6.290 E2.78153
G1 X7.290 Y-6.290 E3.08164
G1 X7.290 Y10.228 E3.42164
G1 X7.290 Y10.290 E3.42292
G1 X6.930 Y10.082 F7800.000
G1 F1800.000 E2.42292
G92 E0
G1 X3.674 Y9.591 F7800.000
G1 F1800.000 E1.00000
G1 X3.409 Y9.326 F1305.996 E1.00771
G1 X3.409 Y7.367 E1.04804
G1 X5.633 Y9.591 E1.11280
G1 X6.591 Y8.589 E1.14133
G1 X3.409 Y5.407 E1.23396
G1 X3.409 Y3.447 E1.27429
G1 X6.591 Y6.629 E1.36692
G1 X6.591 Y4.670 E1.40726
G1 X3.409 Y1.488 E1.49988
G1 X3.656 Y-0.225 E1.53550
G1 X-1.710 Y-5.591 E1.69170
G1 X-3.670 Y-5.591 E1.73204
G1 X1.207 Y-0.715 E1.87399
G1 X3.409 Y-0.472 E1.91959
G1 X6.591 Y2.710 E2.01222
G1 X6.591 Y0.750 E2.05256
G1 X0.250 Y-5.591 E2.23715
G1 X2.210 Y-5.591 E2.27748
G1 X6.591 Y-1.210 E2.40503
G1 X6.591 Y-3.169 E2.44536
G1 X4.169 Y-5.591 E2.51586
G1 X6.129 Y-5.591 E2.55620
G1 X6.591 Y-5.129 E2.56965
G1 F1800.000 E1.56965
G92 E0
